public/assets/img/casestudies/recupera/logoRecupera.svg

<svg fill="none" height="104" viewBox="0 0 601 104" width="601" xmlns="http://www.w3.org/2000/svg"><g fill="#fefefe"><path d="m173.689 74.546c-7.71 0-14.936-1.7358-21.395-6.0146-5.651-3.7137-9.849-8.7191-12.433-14.9758-3.915-9.4861-4.198-19.1739-1.049-28.8618 3.229-9.8493 9.809-16.83265 19.457-20.78853 6.741-2.78526 13.765-3.390754 20.99-2.5027 5.773.68622 11.222 2.42197 16.107 5.65126 6.822 4.52097 11.343 10.69697 12.877 18.85097.282 1.5339.282 1.5339-1.292 1.7357-4.723.6055-9.486 1.1707-14.209 1.8165-.848.1211-.888-.4036-1.009-.8477-2.059-6.7411-6.822-10.6566-13.483-12.2713-5.853-1.4128-11.343-.2422-16.146 3.5119-3.189 2.5027-5.329 5.7723-6.499 9.6071-1.978 6.5393-1.817 13.0383 1.009 19.295 2.987 6.5797 9.446 11.2622 17.519 11.0603 5.005-.1211 9.325-1.8568 12.998-5.2072 2.26-2.0587 3.794-4.6421 4.683-7.5485.242-.7265.524-.9284 1.251-.8476 4.965.6458 9.93 1.2513 14.895 1.8568.646.0807.727.3229.606.9284-1.978 9.9301-7.912 16.7923-16.712 21.3537-5.611 2.9467-11.585 4.1981-18.165 4.1981z"/><path d="m485.525 37.7738c0-11.141 0-22.2417-.041-33.38277 0-.84769.162-1.13025 1.09-1.08989 5.127.04037 10.213.04037 15.34 0 .726 0 .968.1211.968.92842-.04 2.5027-.04 5.04577 0 7.54844 0 .323-.282.8073.364.8477.444.0404.969.2018 1.292-.444 1.937-3.83479 5.045-6.53932 8.88-8.31543 5.086-2.34124 10.294-2.58343 15.541-.52476.566.20183.646.52476.646 1.04952 0 4.72283-.04 9.48607 0 14.20887 0 .7266-.161.8477-.847.5651-3.109-1.1706-6.298-1.9375-9.608-2.0183-6.983-.2018-11.706 3.7137-14.29 9.809-1.372 3.1889-1.735 6.62-1.735 10.0511v34.1901c0 .8477-.202 1.0496-1.05 1.0496-5.207-.0404-10.414-.0404-15.622 0-.767 0-.928-.2019-.928-.9285 0-11.1814 0-22.3628 0-33.5442z"/><path d="m44.5545 19.4869c-2.3817-.9688-4.8037-1.5743-7.2661-1.978-3.6733-.6055-7.266-.4844-10.576 1.4129-4.0367 2.3412-6.4184 6.0145-7.6294 10.4548-.7266 2.5834-.9284 5.2072-.9284 7.8714v33.9882c0 .8073-.1615 1.0495-1.0495 1.0495-5.2073-.0403-10.41466-.0403-15.62198 0-.766965 0-.928432-.2018-.928432-.9284.080733-22.3628.080733-44.7256.040366-67.08844 0-.76696.121101-1.00916.968806-1.00916 5.12658.04037 10.29354.04037 15.42014 0 .8073 0 .9284.2422.9284.96879-.0404 2.46233-.0404 4.92466 0 7.34661 0 .3229-.2826.8881.2826 1.0092.5247.1211 1.0899.1211 1.4532-.5652 1.4532-2.86595 3.633-5.12645 6.3779-6.86219 5.611-3.47148 11.5046-4.23844 17.721-1.93757.6863.24219.8881.60549.8881 1.33208-.0404 4.6421 0 9.28418 0 13.92628-.0404.323-.0404.6055-.0807 1.0092z"/><path clip-rule="evenodd" d="m311.255 53.1839v.0119.012c0 16.3846 0 32.7289-.04 49.1132 0 .848.202 1.05 1.049 1.05 5.167-.041 10.375-.041 15.542 0 .888 0 1.089-.202 1.089-1.09-.04-12.5943-.04-25.2289-.04-37.8231 0-1.0092.242-1.211 1.13-1.0092.29.058.413.2614.535.4612.047.0786.095.1567.152.2251 1.978 2.7852 4.44 5.0457 7.387 6.7411 6.66 3.8348 13.846 4.5614 21.192 3.1486 11.949-2.3009 19.901-9.6475 24.341-20.8289 2.261-5.6513 2.947-11.5448 2.665-17.5997-.323-6.9833-2.059-13.563-5.813-19.5372-2.826-4.4402-6.499-7.99246-11.061-10.65662-6.378-3.71368-13.24-4.843934-20.506-4.07698-6.459.68623-11.989 3.31002-16.389 8.15396-.726.76694-1.413 1.61464-1.978 2.54304-.314.4884-.748.4341-1.147.3843-.063-.0078-.125-.0155-.185-.021-.469-.0312-.405-.3772-.353-.663.016-.0832.03-.1613.03-.225-.04-2.422-.04-4.84397 0-7.26594.04-.76695-.202-.92842-.928-.92842-5.208.04037-10.415.04037-15.622 0-.888 0-1.09.20183-1.09 1.08989.04 16.26357.04 32.52717.04 48.79077zm51.957-.1895c3.795-4.2788 5.531-9.4456 5.531-15.4198-.041-1.3725-.162-2.9468-.444-4.521-1.534-9.1631-8.962-16.0254-18.206-16.7923-8.517-.6863-16.308 3.8751-19.779 11.6254-2.665 5.9742-2.826 12.0695-.727 18.1648 1.292 3.7944 3.593 6.9429 6.822 9.4053 4.238 3.2292 9.082 4.3595 14.33 3.8751 4.965-.4844 9.163-2.6642 12.473-6.3375z" fill-rule="evenodd"/><path clip-rule="evenodd" d="m416.697 42.9824c8.961.0403 17.963.0403 26.925.0403 2.997 0 5.995-.0044 8.995-.0089 6.011-.009 12.033-.018 18.091.0089.807 0 1.09-.2018 1.13-1.0091.323-6.9026-.121-13.6841-2.947-20.1427-3.148-7.2659-8.235-12.7557-15.218-16.46938-5.692-3.02746-11.828-4.35954-18.246-4.35954-9.769-.04037-18.609 2.5027-26.157 9.00162-5.41 4.6825-8.881 10.4952-10.577 17.3574-1.897 7.71-1.655 15.4199.888 22.9684 2.14 6.4585 5.854 11.9483 11.263 16.2271 6.176 4.8843 13.321 7.3063 21.112 7.8714 7.023.4844 13.886-.3229 20.466-3.0274 7.467-3.0678 13.28-7.9118 16.631-15.4199.323-.6862.323-.888-.444-1.1302l-.001-.0003c-4.359-1.332-8.719-2.664-13.038-4.0767-.888-.2826-1.251-.0807-1.614.6459-.727 1.3724-1.696 2.6237-2.826 3.6733-4.763 4.4806-10.415 6.2567-16.833 5.8127-5.006-.3229-9.406-2.1394-12.917-5.8127-2.988-3.1082-4.683-6.8219-5.531-11.02-.202-.888-.161-1.1302.848-1.1302zm-.236-11.7873h18.245c6.055 0 12.151 0 18.287-.0404.645 0 .847-.0807.726-.8073-.605-3.0275-1.695-5.8531-3.592-8.3154-3.23-4.1577-7.509-6.5393-12.676-7.2659-4.4-.6055-8.598-.0404-12.473 2.2201-5.127 3.0275-7.993 7.6292-9.204 13.3612-.121.5651-.08.8477.687.8477z" fill-rule="evenodd"/><path clip-rule="evenodd" d="m75.9991 55.8949c-3.7138-3.4715-5.6917-7.831-6.4587-12.8768h1.1706 53.688c.067 0 .134-.0045.202-.009.134-.0089.269-.0179.403.009.525.0807.646-.2018.687-.6862.363-5.8127.161-11.6255-1.696-17.2364-2.26-6.8218-6.095-12.5538-11.908-16.83262-5.207-3.87515-11.061-6.13565-17.5192-6.86224-8.5174-1.009155-16.7522-.04037-24.4219 3.91551-9.1633 4.68247-15.0972 12.10985-17.5596 22.08025-2.1798 8.7191-1.5743 17.3978 1.978 25.7536 2.8257 6.62 7.266 11.908 13.4018 15.7024 4.7229 2.9467 9.8495 4.6825 15.3797 5.3283 9.4055 1.1303 18.4882-.0403 26.8842-4.6017 5.974-3.2293 10.455-7.9118 12.998-14.3703l-14.29-4.4807c-.565-.1614-.726.1211-.928.4844-1.292 2.3009-3.068 4.1981-5.207 5.7724-4.4811 3.2293-9.527 4.3595-14.9765 3.9558-4.4807-.3633-8.5174-1.9779-11.8274-5.0457zm-5.4872-24.7019h18.044c1.0495 0 2.0991 0 3.189-.0403h15.1371c.062 0 .134.0101.211.0207.328.0457.728.1014.597-.5859-.888-4.8439-3.109-8.9612-7.064-12.0291-3.472-2.7045-7.4683-3.9155-11.8279-3.9962-5.3284-.1211-10.011 1.5743-13.7651 5.4091-2.8257 2.8659-4.4403 6.3778-5.3284 10.2529-.2018.8881.0404.9688.8073.9688z" fill-rule="evenodd"/><path clip-rule="evenodd" d="m600.854 47.7481v-.0044c0-1.6843.002-3.3712.005-5.0593.007-5.0682.015-10.1477-.046-15.2045 0-1.6146-.04-3.2293-.282-4.8439-1.211-7.9118-5.531-13.64377-12.474-17.43818-4.036-2.22014-8.436-3.39075-13.038-3.87515-7.387-.726586-14.694-.363292-21.596 2.58343-9.083 3.87515-14.452 10.5356-14.896 20.7078-.04.7266.081.9688.888.9688 5.127-.0404 10.294-.0404 15.421 0 .807 0 .888-.2826.928-.9688.202-4.5614 3.027-8.275 7.387-9.6878 3.512-1.1303 7.064-1.2514 10.657-.4441 3.875.8881 6.862 2.9468 8.517 6.7008.801 1.8103.851 3.7107.902 5.6235.008.3051.016.6104.027.9158.04.9284-.202 1.211-1.131 1.3321-5 .5343-9.964 1.1409-14.96 1.7513-.287.0352-.575.0704-.863.1055-5.894.7266-11.666 1.9376-17.116 4.3999-4.359 1.9376-8.315 4.521-10.899 8.6384-3.552 5.6512-3.956 11.7062-1.534 17.8418 2.422 6.0146 7.387 9.2439 13.362 11.02 4.884 1.4531 9.93 1.5742 14.976.8073 5.005-.767 9.526-2.5834 13.28-6.0549 1.252-1.1707 2.342-2.422 3.27-3.8348.363-.4844.767-.6459 1.292-.5248.491.1229.422.4559.361.7505-.02.0926-.038.1814-.038.2587.04 2.3412.04 4.7228 0 7.0641-.041.7669.161 1.0091.969 1.0091 5.207-.0404 10.414-.0404 15.621 0 .848 0 1.05-.2018 1.05-1.0495-.04-7.8296-.04-15.6591-.04-23.4887zm-19.466 5.3639c1.534-2.7853 1.938-5.8127 1.857-8.5172 0-.5034-.005-.9556-.01-1.3766-.008-.7605-.016-1.4194.01-2.0949.041-.6055-.121-.7266-.726-.6459-1.794.2147-3.592.4097-5.39.6047-3.947.4282-7.896.8564-11.807 1.4943-3.754.6055-7.306 1.6954-10.213 4.4-2.502 2.3816-3.39 6.5796-1.856 9.6475 1.211 2.4219 3.269 3.8347 5.772 4.521 5.207 1.4935 10.334 1.0495 15.218-1.2918 3.109-1.4935 5.49-3.7136 7.145-6.7411z" fill-rule="evenodd"/></g><path d="m297.184 63.661c0 6.2292-5.05 11.2789-11.279 11.2789-6.23 0-11.279-5.0497-11.279-11.2789v-51.7985c0-6.22917 5.049-11.278929 11.279-11.278929 6.229.000001 11.279 5.049759 11.279 11.278929z" fill="#fad166"/><path d="m243.122 63.971c-.035 6.2041-5.074 11.215-11.278 11.215-6.254 0-11.314-5.0886-11.279-11.3425l.29-51.3811c.035-6.2041 5.075-11.21501 11.279-11.21501 6.254 0 11.314 5.0886 11.278 11.34251z" fill="#29a42e"/><rect fill="#fefefe" height="22.9791" rx="11.4896" transform="matrix(-1 0 0 1 243.477 1.00146)" width="22.9795"/><rect fill="#fefefe" height="22.5576" rx="11.2788" transform="matrix(-1 0 0 1 270.359 52.7998)" width="22.5579"/><rect fill="#fefefe" height="22.5576" rx="11.2788" transform="matrix(-1 0 0 1 297.184 .583496)" width="22.5579"/></svg>

<svg width="601" height="104" viewBox="0 0 601 104" fill="none" xmlns="http://www.w3.org/2000/svg">
<path d="M173.689 74.546C165.979 74.546 158.753 72.8102 152.294 68.5314C146.643 64.8177 142.445 59.8123 139.861 53.5556C135.946 44.0695 135.663 34.3817 138.812 24.6938C142.041 14.8445 148.621 7.86115 158.269 3.90527C165.01 1.12001 172.034 0.514516 179.259 1.40257C185.032 2.08879 190.481 3.82454 195.366 7.05383C202.188 11.5748 206.709 17.7508 208.243 25.9048C208.525 27.4387 208.525 27.4387 206.951 27.6405C202.228 28.246 197.465 28.8112 192.742 29.457C191.894 29.5781 191.854 29.0534 191.733 28.6093C189.674 21.8682 184.911 17.9527 178.25 16.338C172.397 14.9252 166.907 16.0958 162.104 19.8499C158.915 22.3526 156.775 25.6222 155.605 29.457C153.627 35.9963 153.788 42.4953 156.614 48.752C159.601 55.3317 166.06 60.0142 174.133 59.8123C179.138 59.6912 183.458 57.9555 187.131 54.6051C189.391 52.5464 190.925 49.963 191.814 47.0566C192.056 46.3301 192.338 46.1282 193.065 46.209C198.03 46.8548 202.995 47.4603 207.96 48.0658C208.606 48.1465 208.687 48.3887 208.566 48.9942C206.588 58.9243 200.654 65.7865 191.854 70.3479C186.243 73.2946 180.269 74.546 173.689 74.546Z" fill="#FEFEFE"/>
<path d="M485.525 37.7738C485.525 26.6328 485.525 15.5321 485.484 4.39103C485.484 3.54334 485.646 3.26078 486.574 3.30114C491.701 3.34151 496.787 3.34151 501.914 3.30114C502.64 3.30114 502.882 3.42224 502.882 4.22956C502.842 6.73226 502.842 9.27533 502.882 11.778C502.882 12.101 502.6 12.5853 503.246 12.6257C503.69 12.6661 504.215 12.8275 504.538 12.1817C506.475 8.34691 509.583 5.64238 513.418 3.86627C518.504 1.52503 523.712 1.28284 528.959 3.34151C529.525 3.54334 529.605 3.86627 529.605 4.39103C529.605 9.11386 529.565 13.8771 529.605 18.5999C529.605 19.3265 529.444 19.4476 528.758 19.165C525.649 17.9944 522.46 17.2275 519.15 17.1467C512.167 16.9449 507.444 20.8604 504.86 26.9557C503.488 30.1446 503.125 33.5757 503.125 37.0068C503.125 48.3901 503.125 59.8137 503.125 71.1969C503.125 72.0446 502.923 72.2465 502.075 72.2465C496.868 72.2061 491.661 72.2061 486.453 72.2465C485.686 72.2465 485.525 72.0446 485.525 71.318C485.525 60.1366 485.525 48.9552 485.525 37.7738Z" fill="#FEFEFE"/>
<path d="M44.5545 19.4869C42.1728 18.5181 39.7508 17.9126 37.2884 17.5089C33.6151 16.9034 30.0224 17.0245 26.7124 18.9218C22.6757 21.263 20.294 24.9363 19.083 29.3766C18.3564 31.96 18.1546 34.5838 18.1546 37.248C18.1546 48.5908 18.1546 59.8933 18.1546 71.2362C18.1546 72.0435 17.9931 72.2857 17.1051 72.2857C11.8978 72.2454 6.69044 72.2454 1.48312 72.2857C0.716155 72.2857 0.554688 72.0839 0.554688 71.3573C0.635421 48.9945 0.635421 26.6317 0.595054 4.26886C0.595054 3.5019 0.716155 3.2597 1.56386 3.2597C6.69044 3.30007 11.8574 3.30007 16.984 3.2597C17.7913 3.2597 17.9124 3.5019 17.9124 4.22849C17.872 6.69082 17.872 9.15315 17.9124 11.5751C17.9124 11.898 17.6298 12.4632 18.195 12.5843C18.7197 12.7054 19.2849 12.7054 19.6482 12.0191C21.1014 9.15315 23.2812 6.89265 26.0261 5.15691C31.6371 1.68543 37.5307 0.91847 43.7471 3.21934C44.4334 3.46153 44.6352 3.82483 44.6352 4.55142C44.5948 9.19352 44.6352 13.8356 44.6352 18.4777C44.5948 18.8007 44.5948 19.0832 44.5545 19.4869Z" fill="#FEFEFE"/>
<path fill-rule="evenodd" clip-rule="evenodd" d="M311.255 53.1839V53.1958V53.2078C311.255 69.5924 311.255 85.9367 311.215 102.321C311.215 103.169 311.417 103.371 312.264 103.371C317.431 103.33 322.639 103.33 327.806 103.371C328.694 103.371 328.895 103.169 328.895 102.281C328.855 89.6867 328.855 77.0521 328.855 64.4579C328.855 63.4487 329.097 63.2469 329.985 63.4487C330.275 63.5067 330.398 63.7101 330.52 63.9099C330.567 63.9885 330.615 64.0666 330.672 64.135C332.65 66.9202 335.112 69.1807 338.059 70.8761C344.719 74.7109 351.905 75.4375 359.251 74.0247C371.2 71.7238 379.152 64.3772 383.592 53.1958C385.853 47.5445 386.539 41.651 386.257 35.5961C385.934 28.6128 384.198 22.0331 380.444 16.0589C377.618 11.6187 373.945 8.06644 369.383 5.40228C363.005 1.6886 356.143 0.558346 348.877 1.3253C342.418 2.01153 336.888 4.63532 332.488 9.47926C331.762 10.2462 331.075 11.0939 330.51 12.0223C330.196 12.5107 329.762 12.4564 329.363 12.4066C329.3 12.3988 329.238 12.3911 329.178 12.3856C328.709 12.3544 328.773 12.0084 328.825 11.7226C328.841 11.6394 328.855 11.5613 328.855 11.4976C328.815 9.0756 328.815 6.65363 328.855 4.23166C328.895 3.46471 328.653 3.30324 327.927 3.30324C322.719 3.34361 317.512 3.34361 312.305 3.30324C311.417 3.30324 311.215 3.50507 311.215 4.39313C311.255 20.6567 311.255 36.9203 311.255 53.1839ZM363.212 52.9944C367.007 48.7156 368.743 43.5488 368.743 37.5746C368.702 36.2021 368.581 34.6278 368.299 33.0536C366.765 23.8905 359.337 17.0282 350.093 16.2613C341.576 15.575 333.785 20.1364 330.314 27.8867C327.649 33.8609 327.488 39.9562 329.587 46.0515C330.879 49.8459 333.18 52.9944 336.409 55.4568C340.647 58.686 345.491 59.8163 350.739 59.3319C355.704 58.8475 359.902 56.6677 363.212 52.9944Z" fill="#FEFEFE"/>
<path fill-rule="evenodd" clip-rule="evenodd" d="M416.697 42.9824C425.658 43.0227 434.66 43.0227 443.622 43.0227C446.619 43.0227 449.617 43.0183 452.617 43.0138C458.628 43.0048 464.65 42.9958 470.708 43.0227C471.515 43.0227 471.798 42.8209 471.838 42.0136C472.161 35.111 471.717 28.3295 468.891 21.8709C465.743 14.605 460.656 9.1152 453.673 5.40152C447.981 2.37406 441.845 1.04198 435.427 1.04198C425.658 1.00161 416.818 3.54468 409.27 10.0436C403.86 14.7261 400.389 20.5388 398.693 27.401C396.796 35.111 397.038 42.8209 399.581 50.3694C401.721 56.8279 405.435 62.3177 410.844 66.5965C417.02 71.4808 424.165 73.9028 431.956 74.4679C438.979 74.9523 445.842 74.145 452.422 71.4405C459.889 68.3727 465.702 63.5287 469.053 56.0206C469.376 55.3344 469.376 55.1326 468.609 54.8904L468.608 54.8901C464.249 53.5581 459.889 52.2261 455.57 50.8134C454.682 50.5308 454.319 50.7327 453.956 51.4593C453.229 52.8317 452.26 54.083 451.13 55.1326C446.367 59.6132 440.715 61.3893 434.297 60.9453C429.291 60.6224 424.891 58.8059 421.38 55.1326C418.392 52.0244 416.697 48.3107 415.849 44.1126C415.647 43.2246 415.688 42.9824 416.697 42.9824ZM416.461 31.1951H434.706C440.761 31.1951 446.857 31.1951 452.993 31.1547C453.638 31.1547 453.84 31.074 453.719 30.3474C453.114 27.3199 452.024 24.4943 450.127 22.032C446.897 17.8743 442.618 15.4927 437.451 14.7661C433.051 14.1606 428.853 14.7257 424.978 16.9862C419.851 20.0137 416.985 24.6154 415.774 30.3474C415.653 30.9125 415.694 31.1951 416.461 31.1951Z" fill="#FEFEFE"/>
<path fill-rule="evenodd" clip-rule="evenodd" d="M75.9991 55.8949C72.2853 52.4234 70.3074 48.0639 69.5404 43.0181H70.711H124.399C124.466 43.0181 124.533 43.0136 124.601 43.0091C124.735 43.0002 124.87 42.9912 125.004 43.0181C125.529 43.0988 125.65 42.8163 125.691 42.3319C126.054 36.5192 125.852 30.7064 123.995 25.0955C121.735 18.2737 117.9 12.5417 112.087 8.26288C106.88 4.38773 101.026 2.12723 94.5678 1.40064C86.0504 0.391485 77.8156 1.36027 70.1459 5.31615C60.9826 9.99862 55.0487 17.426 52.5863 27.3964C50.4065 36.1155 51.012 44.7942 54.5643 53.15C57.39 59.77 61.8303 65.058 67.9661 68.8524C72.689 71.7991 77.8156 73.5349 83.3458 74.1807C92.7513 75.311 101.834 74.1404 110.23 69.579C116.204 66.3497 120.685 61.6672 123.228 55.2087L108.938 50.728C108.373 50.5666 108.212 50.8491 108.01 51.2124C106.718 53.5133 104.942 55.4105 102.803 56.9848C98.3219 60.2141 93.276 61.3443 87.8265 60.9406C83.3458 60.5773 79.3091 58.9627 75.9991 55.8949ZM70.5119 31.193H88.5559C89.6054 31.193 90.655 31.193 91.7449 31.1527H106.882C106.944 31.1527 107.016 31.1628 107.093 31.1734C107.421 31.2191 107.821 31.2748 107.69 30.5875C106.802 25.7436 104.581 21.6263 100.626 18.5584C97.154 15.8539 93.1577 14.6429 88.7981 14.5622C83.4697 14.4411 78.7871 16.1365 75.033 19.9713C72.2073 22.8372 70.5927 26.3491 69.7046 30.2242C69.5028 31.1123 69.745 31.193 70.5119 31.193Z" fill="#FEFEFE"/>
<path fill-rule="evenodd" clip-rule="evenodd" d="M600.854 47.7481V47.7437C600.854 46.0594 600.856 44.3725 600.859 42.6844C600.866 37.6162 600.874 32.5367 600.813 27.4799C600.813 25.8653 600.773 24.2506 600.531 22.636C599.32 14.7242 595 8.99223 588.057 5.19782C584.021 2.97768 579.621 1.80707 575.019 1.32267C567.632 0.596084 560.325 0.959378 553.423 3.9061C544.34 7.78125 538.971 14.4417 538.527 24.6139C538.487 25.3405 538.608 25.5827 539.415 25.5827C544.542 25.5423 549.709 25.5423 554.836 25.5827C555.643 25.5827 555.724 25.3001 555.764 24.6139C555.966 20.0525 558.791 16.3389 563.151 14.9261C566.663 13.7958 570.215 13.6747 573.808 14.482C577.683 15.3701 580.67 17.4288 582.325 21.1828C583.126 22.9931 583.176 24.8935 583.227 26.8063C583.235 27.1114 583.243 27.4167 583.254 27.7221C583.294 28.6505 583.052 28.9331 582.123 29.0542C577.123 29.5885 572.159 30.1951 567.163 30.8055C566.876 30.8407 566.588 30.8759 566.3 30.911C560.406 31.6376 554.634 32.8486 549.184 35.3109C544.825 37.2485 540.869 39.8319 538.285 43.9493C534.733 49.6005 534.329 55.6555 536.751 61.7911C539.173 67.8057 544.138 71.035 550.113 72.8111C554.997 74.2642 560.043 74.3853 565.089 73.6184C570.094 72.8514 574.615 71.035 578.369 67.5635C579.621 66.3928 580.711 65.1415 581.639 63.7287C582.002 63.2443 582.406 63.0828 582.931 63.2039C583.422 63.3268 583.353 63.6598 583.292 63.9544C583.272 64.047 583.254 64.1358 583.254 64.2131C583.294 66.5543 583.294 68.9359 583.254 71.2772C583.213 72.0441 583.415 72.2863 584.223 72.2863C589.43 72.2459 594.637 72.2459 599.844 72.2863C600.692 72.2863 600.894 72.0845 600.894 71.2368C600.854 63.4072 600.854 55.5777 600.854 47.7481ZM581.388 53.112C582.922 50.3267 583.326 47.2993 583.245 44.5948C583.245 44.0914 583.24 43.6392 583.235 43.2182C583.227 42.4577 583.219 41.7988 583.245 41.1233C583.286 40.5178 583.124 40.3967 582.519 40.4774C580.725 40.6921 578.927 40.8871 577.129 41.0821C573.182 41.5103 569.233 41.9385 565.322 42.5764C561.568 43.1819 558.016 44.2718 555.109 46.9764C552.607 49.358 551.719 53.556 553.253 56.6239C554.464 59.0458 556.522 60.4586 559.025 61.1449C564.232 62.6384 569.359 62.1944 574.243 59.8531C577.352 58.3596 579.733 56.1395 581.388 53.112Z" fill="#FEFEFE"/>
<path d="M297.184 63.661C297.184 69.8902 292.134 74.9399 285.905 74.9399C279.675 74.9399 274.626 69.8902 274.626 63.661L274.626 11.8625C274.626 5.63333 279.675 0.583571 285.905 0.583571C292.134 0.583572 297.184 5.63333 297.184 11.8625L297.184 63.661Z" fill="#FAD166"/>
<path d="M243.122 63.971C243.087 70.1751 238.048 75.186 231.844 75.186C225.59 75.186 220.53 70.0974 220.565 63.8435L220.855 12.4624C220.89 6.2583 225.93 1.24739 232.134 1.24739C238.388 1.24739 243.448 6.33599 243.412 12.5899L243.122 63.971Z" fill="#29A42E"/>
<rect width="22.9795" height="22.9791" rx="11.4896" transform="matrix(-1 0 0 1 243.477 1.00146)" fill="#FEFEFE"/>
<rect width="22.5579" height="22.5576" rx="11.2788" transform="matrix(-1 0 0 1 270.359 52.7998)" fill="#FEFEFE"/>
<rect width="22.5579" height="22.5576" rx="11.2788" transform="matrix(-1 0 0 1 297.184 0.583496)" fill="#FEFEFE"/>
</svg>
